packages/radix-icons/outline/15/code.svg

<svg width="15" height="15" fill="none" xmlns="http://www.w3.org/2000/svg">
  <path
    fill-rule="evenodd"
    clip-rule="evenodd"
    d="M9.96424 2.68569C10.0668 2.4293 9.94209 2.13832 9.6857 2.03576C9.4293 1.9332 9.13832 2.05791 9.03576 2.3143L5.03576 12.3143C4.9332 12.5707 5.05791 12.8617 5.3143 12.9642C5.5707 13.0668 5.86168 12.9421 5.96424 12.6857L9.96424 2.68569ZM3.85355 5.14645C4.04882 5.34171 4.04882 5.65829 3.85355 5.85355L2.20711 7.5L3.85355 9.14645C4.04882 9.34171 4.04882 9.65829 3.85355 9.85355C3.65829 10.0488 3.34171 10.0488 3.14645 9.85355L1.14645 7.85355C0.951184 7.65829 0.951184 7.34171 1.14645 7.14645L3.14645 5.14645C3.34171 4.95118 3.65829 4.95118 3.85355 5.14645ZM11.1464 5.14645C11.3417 4.95118 11.6583 4.95118 11.8536 5.14645L13.8536 7.14645C14.0488 7.34171 14.0488 7.65829 13.8536 7.85355L11.8536 9.85355C11.6583 10.0488 11.3417 10.0488 11.1464 9.85355C10.9512 9.65829 10.9512 9.34171 11.1464 9.14645L12.7929 7.5L11.1464 5.85355C10.9512 5.65829 10.9512 5.34171 11.1464 5.14645Z"
    fill="currentColor"
  />
</svg>

<svg width="15" height="15" fill="none" xmlns="http://www.w3.org/2000/svg">
  <path
    fill-rule="evenodd"
    clip-rule="evenodd"
    d="M9.964 2.686a.5.5 0 10-.928-.372l-4 10a.5.5 0 10.928.372l4-10zm-6.11 2.46a.5.5 0 010 .708L2.207 7.5l1.647 1.646a.5.5 0 11-.708.708l-2-2a.5.5 0 010-.708l2-2a.5.5 0 01.708 0zm7.292 0a.5.5 0 01.708 0l2 2a.5.5 0 010 .708l-2 2a.5.5 0 01-.708-.708L12.793 7.5l-1.647-1.646a.5.5 0 010-.708z"
    fill="currentColor"
  />
</svg>
